svgs/light/flask.svg

<svg xmlns="http://www.w3.org/2000/svg" viewBox="0 0 448 512"><!-- Font Awesome Pro 6.0.0-alpha2 by @fontawesome - https://fontawesome.com License - https://fontawesome.com/license (Commercial License) --><path d="M437.232 403.5L319.992 215V79.996C319.992 71.162 312.83 64 303.996 64S288 71.162 288 79.996V144H287.992V215.002C287.992 220.975 289.664 226.828 292.818 231.9L347.613 320H100.387L155.18 231.902C158.336 226.828 160.008 220.975 160.008 215V144H160V79.996C160 71.162 152.838 64 144.004 64S128.008 71.162 128.008 79.996V215L10.767 403.5C-18.479 450.625 15.267 512 70.889 512H377.111C432.732 512 466.478 450.5 437.232 403.5ZM410.932 460C407.592 466.014 397.609 480 377.111 480H70.889C50.383 480 40.406 466.047 37.068 460.047C30.043 447.42 30.377 432.59 37.941 420.4L80.484 352H367.515L410.062 420.406C417.627 432.562 417.953 447.363 410.932 460ZM112 32H336C344.844 32 352 24.844 352 16S344.844 0 336 0H112C103.156 0 96 7.156 96 16S103.156 32 112 32Z"/></svg>

<svg xmlns="http://www.w3.org/2000/svg" viewBox="0 0 448 512"><!--! Font Awesome Pro 6.0.0-alpha3 by @fontawesome - https://fontawesome.com License - https://fontawesome.com/license (Commercial License) --><path d="M437.2 403.5L319.1 215l.0001-135C319.1 71.16 312.8 64 303.1 64S288 71.16 288 79.1L287.1 215c0 5.973 1.672 11.83 4.826 16.9L347.6 320H100.4l54.79-88.1C158.3 226.8 160 220.1 160 215L160 79.1C160 71.16 152.8 64 144 64S128 71.16 128 79.1L128 215l-117.2 188.5C-18.48 450.6 15.27 512 70.89 512h306.2C432.7 512 466.5 450.5 437.2 403.5zM410.9 460C407.6 466 397.6 480 377.1 480H70.89c-20.51 0-30.48-13.95-33.82-19.95c-7.025-12.63-6.691-27.46 .873-39.65L80.48 352h287l42.55 68.41C417.6 432.6 417.1 447.4 410.9 460zM112 32h224C344.8 32 352 24.84 352 16S344.8 0 336 0h-224C103.2 0 96 7.156 96 16S103.2 32 112 32z"/></svg>
